!!!OTL: Aura Lee
!!!COM: Poulton, George
!!!LYR: Fosdick, W.W.
!!!ODT: 1861
!!!YOR: The Folksong Fake Book
!!!YOY: 2000
!!!AST: Folk song
!!!YEC: Brian Luke, 2001
**kern	**harm
*k[f#c#g#d#]	*k[f#c#g#d#]
*M4/4	*M4/4
*E:	*E:
*>A	*>A
=1	=1
4B	I
4e	.
4d#	.
4e	.
=2	=2
4f#	ii
4c#	.
2f#	V7/V
=3	=3
4e	V7
4d#	.
4c#	.
4d#	.
=4	=4
2e	I
2B	.
=5	=5
4B	.
4e	.
4d#	.
4e	.
=6	=6
4f#	ii
4c#	.
4.f#	V7/V
8f#	.
=7	=7
4e	V7
4d#	.
4c#	.
4d#	.
=8	=8
1e	I;
*>B	*>B
=9	=9
4.g#	I
8g#	.
2g#	.
=10	=10
4.g#	V/vi
8g#	.
2g#	.
=11	=11
4g#	vi
4f#	.
4e	.
4f#	ii
=12	=12
1g#	V/vi
=13	=13
4g#	I
4g#	.
4a	IVc
4g#	I
=14	=14
4f#	V7/V
4c#	.
4.f#	.
8e	.
=15	=15
4e	V7
4d#	.
4.g#	.
8f#	.
=16	=16
1e	I;
*-	*-
